style-guide/assets/xd-icons-trash-empty-tiny.svg

<?xml version="1.0" encoding="UTF-8"?>
<svg width="12px" height="12px" viewBox="0 0 12 12" version="1.1" xmlns="http://www.w3.org/2000/svg" xmlns:xlink="http://www.w3.org/1999/xlink">
    <!-- Generator: Sketch 51.3 (57544) - http://www.bohemiancoding.com/sketch -->
    <title>trash empty</title>
    <desc>Created with Sketch.</desc>
    <defs></defs>
    <g id="trash-empty" stroke="none" stroke-width="1" fill="none" fill-rule="evenodd">
        <path d="M10.0001004,4.00072629 C10.5531004,4.00072629 11.0001004,4.44872629 11.0001004,5.00072629 L11.0001004,11.0007263 C11.0001004,11.5527263 10.5531004,12.0007263 10.0001004,12.0007263 L2.0001004,12.0007263 C1.4481004,12.0007263 1.0001004,11.5527263 1.0001004,11.0007263 L1.0001004,8.00072629 C1.0001004,7.44872629 1.4481004,7.00072629 2.0001004,7.00072629 C2.5521004,7.00072629 3.0001004,7.44872629 3.0001004,8.00072629 L3.0001004,10.0007263 L5.0001004,10.0007263 L5.0001004,6.00072629 C5.0001004,5.44872629 5.4481004,5.00072629 6.0001004,5.00072629 C6.5521004,5.00072629 7.0001004,5.44872629 7.0001004,6.00072629 L7.0001004,10.0007263 L9.0001004,10.0007263 L9.0001004,5.00072629 C9.0001004,4.44872629 9.4481004,4.00072629 10.0001004,4.00072629 Z M1.4063004,5.91432629 C1.2743004,5.97332629 1.1363004,6.00132629 1.0003004,6.00132629 C0.617300398,6.00132629 0.252300398,5.77932629 0.0863003979,5.40732629 C-0.137699602,4.90232629 0.0893003979,4.31132629 0.594300398,4.08732629 L3.4333004,2.82532629 C3.2983004,2.73232629 3.1843004,2.60432629 3.1053004,2.44832629 C2.8583004,1.95432629 3.0583004,1.35332629 3.5523004,1.10632629 L5.5523004,0.106326288 C6.0483004,-0.141673712 6.6483004,0.0603262876 6.8943004,0.553326288 C7.0073004,0.779326288 7.0273004,1.02732629 6.9673004,1.25432629 L9.5943004,0.0873262876 C10.0993004,-0.138673712 10.6893004,0.0893262876 10.9143004,0.594326288 C11.1373004,1.09932629 10.9113004,1.69032629 10.4063004,1.91432629 L1.4063004,5.91432629 Z" id="Fill-4" fill="#000000"></path>
    </g>
</svg>

<svg viewBox="0 0 12 12" xmlns="http://www.w3.org/2000/svg">
  <path d="M10 4a1 1 0 0 1 1 1v6a1 1 0 0 1-1 1H2a1 1 0 0 1-1-1V8a1 1 0 0 1 2 0v2h2V6a1 1 0 0 1 2 0v4h2V5a1 1 0 0 1 1-1zM1.406 5.915a1.001 1.001 0 0 1-.812-1.827l2.84-1.262a1 1 0 0 1 .119-1.719l2-1a1 1 0 0 1 1.414 1.148L9.594.087a1 1 0 0 1 .812 1.827l-9 4z" fill="#000" fill-rule="evenodd"/>
</svg>
